packages/tokens/icons/wallet/size16Px.svg

<svg viewBox="0 0 14 12" fill="none" xmlns="http://www.w3.org/2000/svg" width="1em" height="1em"><path d="M13.5 2.5V2.5C13.5 1.39543 12.6046 0.499999 11.5 0.499999L2.5 0.499999C1.39543 0.499999 0.499999 1.39543 0.499999 2.5L0.499999 9.49999C0.499999 10.6046 1.39543 11.5 2.5 11.5H11.5C12.6046 11.5 13.5 10.6046 13.5 9.49999V9.49999" stroke="currentColor" stroke-linecap="round"/><path d="M9.55883 5.99999C9.55883 5.17157 10.2304 4.5 11.0588 4.5H13.5V7.49999L11.0588 7.49999C10.2304 7.49999 9.55883 6.82842 9.55883 5.99999Z" stroke="currentColor"/></svg>

<svg xmlns="http://www.w3.org/2000/svg" fill="none" viewBox="0 0 14 12" width="1em" height="1em"><path stroke="currentColor" stroke-linecap="round" d="M13.5 2.5v0a2 2 0 0 0-2-2h-9a2 2 0 0 0-2 2v7a2 2 0 0 0 2 2h9a2 2 0 0 0 2-2v0"/><path stroke="currentColor" d="M9.559 6a1.5 1.5 0 0 1 1.5-1.5H13.5v3h-2.441a1.5 1.5 0 0 1-1.5-1.5Z"/></svg>
